files_svgedit/svg-edit/images/polygon.svg

<?xml version="1.0" encoding="UTF-8" standalone="no"?>
<!-- Created with Inkscape (http://www.inkscape.org/) -->
<svg
   xmlns:dc="http://purl.org/dc/elements/1.1/"
   xmlns:cc="http://web.resource.org/cc/"
   xmlns:rdf="http://www.w3.org/1999/02/22-rdf-syntax-ns#"
   xmlns:svg="http://www.w3.org/2000/svg"
   xmlns="http://www.w3.org/2000/svg"
   xmlns:xlink="http://www.w3.org/1999/xlink"
   xmlns:sodipodi="http://inkscape.sourceforge.net/DTD/sodipodi-0.dtd"
   xmlns:inkscape="http://www.inkscape.org/namespaces/inkscape"
   sodipodi:docname="draw-polygon.svg"
   sodipodi:docbase="/home/andreas/projekt/tango/22"
   inkscape:version="0.42"
   id="svg8728"
   height="22.000000px"
   width="22.000000px"
   inkscape:export-filename="/home/andreas/projekt/tango/22/draw-polygon.png"
   inkscape:export-xdpi="90.000000"
   inkscape:export-ydpi="90.000000">
  <defs
     id="defs3">
    <linearGradient
       inkscape:collect="always"
       id="linearGradient3941">
      <stop
         style="stop-color:#000000;stop-opacity:1;"
         offset="0"
         id="stop3943" />
      <stop
         style="stop-color:#000000;stop-opacity:0;"
         offset="1"
         id="stop3945" />
    </linearGradient>
    <linearGradient
       id="linearGradient6581">
      <stop
         style="stop-color:#eeeeec;stop-opacity:1;"
         offset="0"
         id="stop6583" />
      <stop
         style="stop-color:#e0e0de;stop-opacity:1.0000000;"
         offset="1.0000000"
         id="stop6585" />
    </linearGradient>
    <linearGradient
       id="linearGradient14920">
      <stop
         id="stop14922"
         offset="0"
         style="stop-color:#5a7aa4;stop-opacity:1;" />
      <stop
         id="stop14924"
         offset="1.0000000"
         style="stop-color:#1f2b3a;stop-opacity:1.0000000;" />
    </linearGradient>
    <linearGradient
       id="linearGradient13390">
      <stop
         id="stop13392"
         offset="0.0000000"
         style="stop-color:#81a2cd;stop-opacity:1.0000000;" />
      <stop
         id="stop13394"
         offset="1.0000000"
         style="stop-color:#2a415f;stop-opacity:1.0000000;" />
    </linearGradient>
    <linearGradient
       id="linearGradient10325">
      <stop
         id="stop10327"
         offset="0"
         style="stop-color:#5a7aa4;stop-opacity:1;" />
      <stop
         id="stop10329"
         offset="1.0000000"
         style="stop-color:#455e7e;stop-opacity:1.0000000;" />
    </linearGradient>
    <linearGradient
       gradientUnits="userSpaceOnUse"
       y2="39.486301"
       x2="37.746555"
       y1="23.992306"
       x1="23.598076"
       gradientTransform="matrix(0.363308,0,0,0.363571,1.976073,1.180651)"
       id="linearGradient13217"
       xlink:href="#linearGradient6581"
       inkscape:collect="always" />
    <radialGradient
       inkscape:collect="always"
       xlink:href="#linearGradient3941"
       id="radialGradient3947"
       cx="2.25"
       cy="16"
       fx="2.25"
       fy="16"
       r="16.875"
       gradientTransform="matrix(1.000000,0.000000,0.000000,0.333333,-5.774893e-15,10.66667)"
       gradientUnits="userSpaceOnUse" />
    <linearGradient
       inkscape:collect="always"
       xlink:href="#linearGradient6581"
       id="linearGradient2398"
       x1="10.769515"
       y1="8.7196503"
       x2="15.923767"
       y2="15.039417"
       gradientUnits="userSpaceOnUse" />
    <linearGradient
       inkscape:collect="always"
       xlink:href="#linearGradient6581"
       id="linearGradient2403"
       gradientUnits="userSpaceOnUse"
       x1="10.769515"
       y1="8.7196503"
       x2="15.923767"
       y2="15.039417"
       gradientTransform="matrix(0.874941,0.000000,0.000000,0.868551,1.339139,1.349650)" />
    <linearGradient
       inkscape:collect="always"
       xlink:href="#linearGradient6581"
       id="linearGradient2405"
       gradientUnits="userSpaceOnUse"
       x1="10.769515"
       y1="8.7196503"
       x2="15.923767"
       y2="15.039417"
       gradientTransform="matrix(1.001575,0.000000,0.000000,1.000000,-3.040037e-3,0.000000)" />
  </defs>
  <sodipodi:namedview
     inkscape:window-y="25"
     inkscape:window-x="0"
     inkscape:window-height="949"
     inkscape:window-width="1280"
     inkscape:document-units="px"
     inkscape:grid-bbox="true"
     showgrid="false"
     inkscape:current-layer="layer1"
     inkscape:cy="10.249014"
     inkscape:cx="16.435231"
     inkscape:zoom="15.999999"
     inkscape:pageshadow="2"
     inkscape:pageopacity="0.0"
     borderopacity="0.08235294"
     bordercolor="#666666"
     pagecolor="#ffffff"
     id="base"
     showguides="true"
     inkscape:guide-bbox="true"
     inkscape:showpageshadow="false"
     stroke="#888a85" />
  <metadata
     id="metadata4">
    <rdf:RDF>
      <cc:Work
         rdf:about="">
        <dc:format>image/svg+xml</dc:format>
        <dc:type
           rdf:resource="http://purl.org/dc/dcmitype/StillImage" />
        <dc:title>Draw Rectangle</dc:title>
        <dc:date>2005-10-10</dc:date>
        <dc:creator>
          <cc:Agent>
            <dc:title>Andreas Nilsson</dc:title>
          </cc:Agent>
        </dc:creator>
        <dc:subject>
          <rdf:Bag>
            <rdf:li>draw</rdf:li>
            <rdf:li>rectangle</rdf:li>
            <rdf:li>square</rdf:li>
          </rdf:Bag>
        </dc:subject>
        <cc:license
           rdf:resource="http://creativecommons.org/licenses/by-sa/2.0/" />
      </cc:Work>
      <cc:License
         rdf:about="http://creativecommons.org/licenses/by-sa/2.0/">
        <cc:permits
           rdf:resource="http://web.resource.org/cc/Reproduction" />
        <cc:permits
           rdf:resource="http://web.resource.org/cc/Distribution" />
        <cc:requires
           rdf:resource="http://web.resource.org/cc/Notice" />
        <cc:requires
           rdf:resource="http://web.resource.org/cc/Attribution" />
        <cc:permits
           rdf:resource="http://web.resource.org/cc/DerivativeWorks" />
        <cc:requires
           rdf:resource="http://web.resource.org/cc/ShareAlike" />
      </cc:License>
    </rdf:RDF>
  </metadata>
  <g
     inkscape:groupmode="layer"
     inkscape:label="Layer 1"
     id="layer1">
    <path
       sodipodi:type="arc"
       style="opacity:0.60000000;color:#000000;fill:url(#radialGradient3947);fill-opacity:1.0000000;fill-rule:evenodd;stroke:none;stroke-width:1.0000000;stroke-linecap:butt;stroke-linejoin:miter;marker:none;marker-start:none;marker-mid:none;marker-end:none;stroke-miterlimit:4.0000000;stroke-dasharray:none;stroke-dashoffset:0.0000000;stroke-opacity:1.0000000;visibility:visible;display:block;overflow:visible"
       id="path2193"
       sodipodi:cx="2.2500000"
       sodipodi:cy="16.000000"
       sodipodi:rx="16.875000"
       sodipodi:ry="5.6250000"
       d="M 19.125000 16.000000 A 16.875000 5.6250000 0 1 1  -14.625000,16.000000 A 16.875000 5.6250000 0 1 1  19.125000 16.000000 z"
       transform="matrix(0.503704,0.000000,0.000000,0.349014,9.366667,12.45257)" />
    <path
       style="fill:url(#linearGradient2405);fill-opacity:1.0000000;fill-rule:evenodd;stroke:#888a85;stroke-width:1.0000002px;stroke-linecap:butt;stroke-linejoin:miter;stroke-opacity:1.0000000"
       d="M 10.376363,3.6237647 L 18.439333,9.5822222 L 15.644242,18.503298 L 5.3933717,18.503298 L 2.5694122,9.5814367 L 10.376363,3.6237647 z "
       id="path1661"
       sodipodi:nodetypes="cccccc" />
    <path
       style="fill:url(#linearGradient2403);fill-opacity:1.0000000;fill-rule:evenodd;stroke:#fdfdfb;stroke-width:0.99999976px;stroke-linecap:butt;stroke-linejoin:miter;stroke-opacity:1.0000000"
       d="M 10.383801,4.6223366 L 17.428917,9.8682235 L 14.894231,17.502140 L 6.1335005,17.494329 L 3.6135882,9.9131875 L 10.383801,4.6223366 z "
       id="path2401"
       sodipodi:nodetypes="cccccc" />
  </g>
</svg>

<?xml version="1.0" encoding="UTF-8" standalone="no"?>
<svg xmlns:rdf="http://www.w3.org/1999/02/22-rdf-syntax-ns#" xmlns="http://www.w3.org/2000/svg" xmlns:sodipodi="http://inkscape.sourceforge.net/DTD/sodipodi-0.dtd" height="22px" width="22px" xmlns:cc="http://web.resource.org/cc/" xmlns:xlink="http://www.w3.org/1999/xlink" sodipodi:docname="draw-polygon.svg" sodipodi:docbase="/home/andreas/projekt/tango/22" xmlns:dc="http://purl.org/dc/elements/1.1/">
 <defs>
  <linearGradient id="a">
   <stop stop-color="#eeeeec" offset="0"/>
   <stop stop-color="#e0e0de" offset="1"/>
  </linearGradient>
  <radialGradient id="b" gradientUnits="userSpaceOnUse" cy="16" cx="2.25" gradientTransform="matrix(1 0 0 .33333 -5.7749e-15 10.667)" r="16.875">
   <stop offset="0"/>
   <stop stop-opacity="0" offset="1"/>
  </radialGradient>
  <linearGradient id="d" y2="15.039" xlink:href="#a" gradientUnits="userSpaceOnUse" x2="15.924" gradientTransform="matrix(.87494 0 0 .86855 1.3391 1.3496)" y1="8.7197" x1="10.77"/>
  <linearGradient id="c" y2="15.039" xlink:href="#a" gradientUnits="userSpaceOnUse" x2="15.924" gradientTransform="matrix(1.0016 0 0 1 -0.00304 0)" y1="8.7197" x1="10.77"/>
 </defs>
 <sodipodi:namedview bordercolor="#666666" pagecolor="#ffffff" stroke="#888a85" showgrid="false" borderopacity="0.08235294" showguides="true"/>
 <g fill-rule="evenodd">
  <path sodipodi:rx="16.875000" sodipodi:ry="5.6250000" style="color:#000000" sodipodi:type="arc" d="m19.125 16a16.875 5.625 0 1 1 -33.75 0 16.875 5.625 0 1 1 33.75 0z" opacity=".6" transform="matrix(.50370 0 0 .34901 9.3667 12.453)" display="block" sodipodi:cy="16.000000" sodipodi:cx="2.2500000" fill="url(#b)"/>
  <path d="m10.376 3.6238l8.063 5.9584-2.795 8.9208h-10.251l-2.8236-8.9216 7.8066-5.9576z" sodipodi:nodetypes="cccccc" stroke="#888a85" stroke-width="1px" fill="url(#c)"/>
  <path d="m10.384 4.6223l7.045 5.2459-2.535 7.6338-8.7605-0.008-2.5199-7.5808 6.7704-5.2909z" sodipodi:nodetypes="cccccc" stroke="#fdfdfb" stroke-width="1px" fill="url(#d)"/>
 </g>
</svg>
